!!!CDT:
!!!PTL: Li Diversi Scherzi a una, due et tre voci. Libro secondo
!!!PPP: Rome
!!!PPR: Giovanni Battista Robletti
!!!PDT: 1613
!!!RISM: C 2215
!!!rime:
!!!AGN: Madrigal
!!!SCT: Tsg16060f
!!!SCA: Tsg16060f
!!!voices:
!!!COM: Cifra, Antonio
!!!OTL: Là tra 'l sangue e le morti egro giacente
**kern	**kern	**text	**kern	**text
*part3	*part2	*part2	*part1	*part1
*staff3	*staff2	*staff2	*staff1	*staff1
*I"[Basso continuo]	*I"[Canto II]	*	*I"[Canto I]	*
*I'Bc	*I'C II	*	*I'C I	*
*oclefF4	*oclefC1	*	*oclefC1	*
*clefF4	*clefG2	*	*clefG2	*
*k[b-]	*k[b-]	*	*k[b-]	*
*F:	*F:	*	*F:	*
*omet(C)	*omet(C)	*	*omet(C)	*
*M4/4	*M4/4	*	*M4/4	*
=1	=1	=1	=1	=1
!	!	!	!LO:TX:a:t=Aria di Romanesca terza, a due Soprani. [Prima stanza.]	!
1BB-y	4b-y	Là	2r	.
.	4cc	tra'l	.	.
.	[2dd	san-	4dd	Là
.	.	.	4ee	tra'l
=2	=2	=2	=2	=2
2BB-y	2dd]	.	2ff	san-
2BB-y	4cc	-gu'e	4ee-X	-gu'e
.	4b-y	le	4dd	le
=3	=3	=3	=3	=3
2F	2a	mor-	2cc	mor-
4F	16aL	-ti e-	2cc	-ti
.	16f	.	.	.
.	16g	.	.	.
.	16aJ	.	.	.
[4F	16b-yL	.	.	.
.	16cc	.	.	.
.	16dd	.	.	.
.	16eeJ	.	.	.
=4	=4	=4	=4	=4
4F]	2ff	.	8r	.
.	.	.	16fL	e-
.	.	.	16gJ	.
4F	.	.	16aL	.
.	.	.	16b-y	.
.	.	.	16cc	.
.	.	.	16ddJ	.
2G	[2b-y	-gro	2ee-X	.
=5	=5	=5	=5	=5
2D	4b-]	.	4.dd	-gro
.	4a	gia-	.	.
.	.	.	8f#X	gia-
2E-X	2cc	-cen-	8gL	-cen-
.	.	.	16a	.
.	.	.	16b-yJ	.
.	.	.	4a	.
=6	=6	=6	=6	=6
2.D	1a	-te	1f#X	-te
4D	.	.	.	.
=7	=7	=7	=7	=7
4D	2r	.	8r	.
.	.	.	8fnXi	Mi
4C	.	.	8g	pa-
.	.	.	8a	-ghe-
[2BB-y	8r	.	2b-y	-rai,
.	8f	Mi	.	.
.	8g	pa-	.	.
.	8a	-ghe-	.	.
=8	=8	=8	=8	=8
4BB-]	4b-y	-rai,	8r	.
.	.	.	8b-y	<Mi
4AA	8r	.	8cc	pa-
.	8f	<Mi	8dd	-ghe-
2GG	8g	pa-	4.ee-X	-rai>
.	8a	-ghe-	.	.
.	8.b-y	-rai>	.	.
.	.	.	8b-y	le
.	16g	le	.	.
=9	=9	=9	=9	=9
1FF	2a	pe-	2cc	pe-
.	4a	-n'em-	2cc	-n'em-
.	[4ff	.	.	.
=10	=10	=10	=10	=10
2F	8ff]L	.	4.ff	.
.	8eeJ	.	.	.
.	8ddL	.	.	.
.	8ccJ	.	8ee	.
2G	8b-yL	.	8ddL	.
.	8ccJ	.	8ccJ	.
.	4dd	.	4b-y	.
=11	=11	=11	=11	=11
2C	4.cc	-pio	8a	-pio
.	.	.	8g	guer-
.	.	.	2g	-rie-
.	8b-y	guer-	.	.
2D	2a	-rie-	.	.
.	.	.	4f#X	.
=12	=12	=12	=12	=12
4GG	2g	-ro,	2g	-ro,
2G	.	.	.	.
.	2r	.	2r	.
4F#X	.	.	.	.
=13	=13	=13	=13	=13
4G	8r	.	2r	.
.	8b-y	Mi	.	.
4A	8a	pa-	.	.
.	8g	-ghe-	.	.
[2B-y	2f	-rai,	8r	.
.	.	.	8ff	Mi
.	.	.	8dd	pa-
.	.	.	8cc	-ghe-
=14	=14	=14	=14	=14
4B-]	8r	.	4b-y	-rai,
.	8ff	<Mi	.	.
4A	8ee-X	pa-	8r	.
.	8dd	-ghe-	8cc	<Mi
2G	4.ee-X	-rai>	8b-y	pa-
.	.	.	8a	-ghe-
.	.	.	8b-y	-rai>
.	8b-y	le	8g	le
=15	=15	=15	=15	=15
1F	2.cc	pe-	2a	pe-
.	.	.	2a	-ne,
.	[4dd	-n'em-	.	.
=16	=16	=16	=16	=16
2F	8dd]L	.	4r	.
.	16cc	.	.	.
.	16b-yJ	.	.	.
.	16ccL	.	4.ee-X	em-
.	16b-y	.	.	.
.	8aJ	.	.	.
2G	2b-y	.	.	.
.	.	.	16ddL	.
.	.	.	16ccJ	.
.	.	.	16ddL	.
.	.	.	16cc	.
.	.	.	8b-yJ	.
=17	=17	=17	=17	=17
2C	4a	-pio	4.cc	-pio
.	2g	guer-	.	.
.	.	.	8a	guer-
2D	.	.	2a	-rie-
.	4f#i	-rie-	.	.
=18	=18	=18	=18	=18
1GG	1g	-ro.	1g	-ro.
=19||	=19||	=19||	=19||	=19||
!	!	!	!LO:TX:a:t=Seconda stanza.	!
1BB-y	2r	.	4r	.
.	.	.	4b-y	Per
.	4r	.	4dd	no-
.	4b-y	Per	4dd	-m'Ar-
=20	=20	=20	=20	=20
2BB-y	4dd	no-	2ff	-mi-
.	4dd	-m'Ar-	.	.
2BB-y	2ff	-mi-	2dd	-da
=21	=21	=21	=21	=21
2F	2cc	-da	4r	.
.	.	.	8a	chia-
.	.	.	8b-y	-me-
4F	4r	.	2cc	-rai,
[4F	8a	chia-	.	.
.	8b-y	-me-	.	.
=22	=22	=22	=22	=22
4F]	2cc	-rai,	4r	.
4F	.	.	8cc	<chia-
.	.	.	8dd	-me-
2G	4r	.	[2ee-X	-rai>
.	8g	<chia-	.	.
.	8a	-me-	.	.
=23	=23	=23	=23	=23
2D	4b-y	-rai>	4ee-]	.
.	4a	so-	2dd	so-
2E-X	2g	-ven-	.	.
.	.	.	4cc	-ven-
=24	=24	=24	=24	=24
2.D	1a	-te	1dd	-te
4D	.	.	.	.
=25	=25	=25	=25	=25
4D	2r	.	2r	.
4C	.	.	.	.
[2BB-y	4r	.	4r	.
.	4b-y	Ne	4dd	Ne
=26	=26	=26	=26	=26
4BB-]	4dd	gl'ul-	4ff	gl'ul-
4AA	4cc	-ti-	4ee	-ti-
2GG	4.b-y	-mi	4.dd	-mi
.	8g	sin-	8cc	sin-
=27	=27	=27	=27	=27
1FF	1a	-gul-	2cc	-gul-
.	.	.	4cc	-ti:
.	.	.	4cc	u-
=28	=28	=28	=28	=28
2F	4a	-ti:	2dd	-dir,
.	4a	u-	.	.
2G	2b-y	-dir	4r	.
.	.	.	4dd	u-
=29	=29	=29	=29	=29
2C	4a	ciò	4.ee-X	-dir
.	2g	spe-	.	.
.	.	.	8cc	ciò
2D	.	.	2a	spe-
.	4f#i	.	.	.
=30	=30	=30	=30	=30
4GG	2g	-ro,	2g	-ro,
2G	.	.	.	.
.	2r	.	2r	.
4F#X	.	.	.	.
=31	=31	=31	=31	=31
4G	2r	.	2r	.
4A	.	.	.	.
[2B-y	4r	.	4r	.
.	4dd	Ne	4dd	Ne
=32	=32	=32	=32	=32
4B-]	4.ff	gl'ul-	4dd	gl'ul-
4A	.	.	4cc	-ti-
.	8cc	-ti-	.	.
2G	4.ee-X	-mi	4cc	-mi
.	.	.	4b-y	sin-
.	8b-y	sin-	.	.
=33	=33	=33	=33	=33
1F	2.a	-gul-	4cc	-gul-
.	.	.	4cc	-ti:
.	.	.	8cc	u-
.	.	.	16ddL	-dir,
.	.	.	16eeJ	.
.	4a	-ti: u-	4ff	.
=34	=34	=34	=34	=34
2F	8aL	-dir,	4r	.
.	16b-y	.	.	.
.	16ccJ	.	.	.
.	4dd	.	8dd	u-
.	.	.	16eeL	-dir
.	.	.	16ffJ	.
2G	4r	.	[2gg	.
.	4g	u-	.	.
=35	=35	=35	=35	=35
2C	8gL	-dir	4gg]	.
.	16a	.	.	.
.	16b-yJ	.	.	.
.	8cc	.	2g	ciò
.	8b-y	ciò	.	.
2D	2a	spe-	.	.
.	.	.	4f#i	spe-
=36	=36	=36	=36	=36
1GG	1g	-ro."	1g	-ro."
=37||	=37||	=37||	=37||	=37||
!	!	!	!LO:TX:a:t=Terza stanza.	!
1BB-y	4r	.	1r	.
.	2ff	Hor	.	.
.	8b-y	qui	.	.
.	8a	man-	.	.
=38	=38	=38	=38	=38
2BB-y	2b-y	-cò	4r	.
.	.	.	2dd	Hor
2BB-y	2r	.	.	.
.	.	.	8a	qui
.	.	.	8g	man-
=39	=39	=39	=39	=39
2F	4r	.	4a	-cò
.	4f	lo	4a	lo
4F	[2a	spir-	[2cc	spir-
[4F	.	.	.	.
=40	=40	=40	=40	=40
4F]	4a]	.	2cc]	.
4F	2cc	-t'a	.	.
2G	.	.	2ee-X	-t'a
.	[4b-y	la	.	.
=41	=41	=41	=41	=41
2D	8b-]	.	4.dd	la
.	8a	do-	.	.
.	2a	-len-	.	.
.	.	.	8cc	do-
2E-X	.	.	2cc	-len-
.	4g	.	.	.
=42	=42	=42	=42	=42
2.D	1a	-te,	1dd	-te,
4D	.	.	.	.
=43	=43	=43	=43	=43
4D	2r	.	2r	.
4C	.	.	.	.
[2BB-y	4r	.	4r	.
.	[4f	Né	[4dd	Né
=44	=44	=44	=44	=44
4BB-]	4f]	.	4dd]	.
4AA	4a	que-	4f	que-
2GG	4b-y	-st'ul-	4g	-st'ul-
.	8b-y	-ti-	8g	-ti-
.	8b-y	-mo	8g	-mo
=45	=45	=45	=45	=45
1FF	2.cc	suo-	2a	suo-
.	.	.	2a	-no
.	4cc	-no e-	.	.
=46	=46	=46	=46	=46
2F	8ddL	-spres-	4r	.
.	16cc	.	.	.
.	16b-yJ	.	.	.
.	16aL	.	4dd	e-
.	16b-y	.	.	.
.	16cc	.	.	.
.	16aJ	.	.	.
2G	2b-y	.	8ee-XL	-spres-
.	.	.	16dd	.
.	.	.	16ccJ	.
.	.	.	16b-yL	.
.	.	.	16cc	.
.	.	.	16dd	.
.	.	.	16b-yJ	.
=47	=47	=47	=47	=47
2C	16aL	-s'in-	4cc	-s'in-
.	16g	.	.	.
.	16a	.	.	.
.	16fJ	.	.	.
.	2g	-te-	16b-yL	.
.	.	.	16a	.
.	.	.	16b-y	.
.	.	.	16gJ	.
2D	.	.	2a	-te-
.	4f#i	.	.	.
=48	=48	=48	=48	=48
4GG	2g	-ro,	2g	-ro,
2G	.	.	.	.
.	2r	.	2r	.
4F#X	.	.	.	.
=49	=49	=49	=49	=49
4G	2r	.	2r	.
4A	.	.	.	.
[2B-y	8b-yL	Né	8ddL	Né
.	8ccJ	.	8eeJ	.
.	4dd	.	4ff	.
=50	=50	=50	=50	=50
4B-]	4d	que-	2f	que-
4A	4.f	-st'ul-	.	.
2G	.	.	4g	-st'ul-
.	8e	-ti-	.	.
.	4e	-mo	8g	-ti-
.	.	.	8g	-mo
=51	=51	=51	=51	=51
1F	2f	suo-	2a	suo-
.	2f	-no	4a	-no
.	.	.	4cc	e-
=52	=52	=52	=52	=52
2F	4r	.	8ccL	-spres-
.	.	.	8b-yJ	.
.	4dd	e-	8ccL	.
.	.	.	8aJ	.
2G	8ddL	-spres-	8b-yL	.
.	8ccJ	.	8aJ	.
.	8ddL	.	8b-yL	.
.	8b-yJ	.	8gJ	.
=53	=53	=53	=53	=53
2C	4.cc	.	4a	-s'in-
.	.	.	2g	-te-
.	8a	-s'in-	.	.
2D	2a	-te-	.	.
.	.	.	4f#i	.
=54	=54	=54	=54	=54
1GG	1g	-ro.	1g	-ro.
=55||	=55||	=55||	=55||	=55||
!	!	!	!LO:TX:a:t=Quarta ed ultima stanza.	!
1BB-y	1r	.	2r	.
.	.	.	4r	.
.	.	.	4ff	E
=56	=56	=56	=56	=56
2BB-y	4r	.	4.f	cad-
.	4dd	E	.	.
.	.	.	8f	-de
2BB-y	8d	cad-	4f	tra-
.	8d	-de	.	.
.	8d	tra-	4f	-mor-
.	8d	-mor-	.	.
=57	=57	=57	=57	=57
2F	2c	-ti-	2a	-ti-
4F	2c	-ta	2a	-ta
[4F	.	.	.	.
=58	=58	=58	=58	=58
4F]	2r	.	4r	.
4F	.	.	8ccL	e
.	.	.	8ddJ	.
2G	4r	.	[2ee-X	.
.	8gL	e	.	.
.	8aJ	.	.	.
=59	=59	=59	=59	=59
2D	4b-y	.	4ee-]	.
.	8a	si	8dd	si
.	8g	dif-	8cc	dif-
2E-X	2g	-fu-	2cc	-fu-
=60	=60	=60	=60	=60
2.D	2.a	-se	1dd	-se
4D	8a	Di	.	.
.	8a	ge-	.	.
=61	=61	=61	=61	=61
4D	4a	-la-	1r	.
4C	8a	-to	.	.
.	8a	su-	.	.
[2BB-y	2b-y	-dor,	.	.
=62	=62	=62	=62	=62
4BB-]	4r	.	4r	.
4AA	8g	di	8b-y	Di
.	8g	ge-	8b-y	ge-
2GG	4g	-la-	4b-y	-la-
.	8g	-to	8b-y	-to
.	8g	su-	8b-y	su-
=63	=63	=63	=63	=63
1FF	1a	-dor,	1cc	-dor,
=64	=64	=64	=64	=64
2F	4r	.	2r	.
.	2cc	e i	.	.
2G	.	.	2dd	e i
.	4b-y	lu-	.	.
=65	=65	=65	=65	=65
2C	4a	-mi	4cc	lu-
.	2g	chiu-	4b-y	-mi
2D	.	.	2a	chiu-
.	4f#X	.	.	.
=66	=66	=66	=66	=66
4GG	2g	-se,	2g	-se,
2G	.	.	.	.
.	2r	.	2r	.
4F#X	.	.	.	.
=67	=67	=67	=67	=67
4G	1r	.	2r	.
4A	.	.	.	.
[2B-y	.	.	8dd	Di
.	.	.	8dd	ge-
.	.	.	[4ff	-la-
=68	=68	=68	=68	=68
4B-]	8dd	Di	4ff]	.
.	8dd	ge-	.	.
4A	2ff	-la-	2cc	-to
2G	.	.	.	.
.	8ee-X	-to	4b-y	su-
.	8b-y	su-	.	.
=69	=69	=69	=69	=69
1F	2.cc	-dor,	1a	-dor,
.	8fL	e i	.	.
.	8gJ	.	.	.
=70	=70	=70	=70	=70
2F	8aL	.	8fL	e i
.	8b-yJ	.	8gJ	.
.	8ccL	.	8aL	.
.	8ddJ	.	8b-yJ	.
2G	4ee-X	.	4cc	.
.	8dd	lu-	4b-y	lu-
.	8dd	-mi	.	.
=71	=71	=71	=71	=71
2C	4.cc	chiu-	4a	-mi
.	.	.	2g	chiu-
.	8b-y	.	.	.
2D	2a	.	.	.
.	.	.	4f#X	.
=72	=72	=72	=72	=72
1GGl	1gl	-se.	1gl	-se.
==	==	==	==	==
*-	*-	*-	*-	*-
!!!system-decoration: [*]
!!!RDF**kern: i = editorial accidental
!!!RDF**kern: l = terminal long
!!!ENC: Emiliano Ricciardi
!!!END:
!!!EED: Ricciardi, Emiliano
!!!EEV: 2020/07/28
!!!YEC: Copyright 2018 Emiliano Ricciardi, All Rights Reserved
!!!ONB: Translated from MusicXML on 2020/07/28
!!@@BEGIN:	VERSEDATA
!!@CATALOGNUM:	Tsg16060
!!@LAST_MODIFIED: 2020/07/12
!!@TITLE:		Là tra 'l sangue e le morti egro giacente
!!@CANTO:		XVI
!!@OTTAVA:	60
!!@MANUSRC:	G-Al, G-Au, G-Br<sub>1</sub>, G-Br<sub>2</sub>, G-Cv, G-Es<sub>1</sub>, G-Es<sub>2</sub>, G-Es<sub>3</sub>, G-F, G-Fr, G-Fr<sub>1</sub>, G-Fr<sub>2</sub>, G-Mc<sub>1</sub>, G-Mg, G-Mr, G-Mt, G-N, G-Ol
!!@PRINTSRC:	G-1580CM, G-1581B, G-1581CV, G-1581R, G-1581MR, G-1581P, G-1581V, G-1581V<sub>bis</sub>, G-1582C, G-1582M, G-1582MC, G-1582P, G-1582SC, G-1582SC<sub>bis</sub>, G-1583S, G-1584O, G-1584S, G-1585C, G-1585S, G-1588S, G-1589S, G-1590B, G-1590S, G-1592S, G-1593S, G-1594C, G-1595C, G-1597C, G-1598C, G-1599C, G-1600C, G-1600S, G-1601C, G-1601R, G-1602C, G-1604C, G-1604Cl, G-1604F, G-1604P, G-1606B, G-1606B<sub>bis</sub>, G-1606L, G-1607ZR, G-1608DP, G-1609GC, G-1610M, G-1611S, G-1611V, G-1612P, G-1613M, G-1613P, G-1613V, G-1615P, G-1616M, G-1617P, G-1619B, G-1619V, G-1620M, G-1620S, G-1621R, G-1624I, G-1624MT, G-1625C, G-1625S, G-1625SS, G-1626C, G-1626Co, G-1627M, G-1628T, G-1628Tu, G-1630L, G-1630T, G-1632FT, G-1639CF, G-1642M, G-1643I, G-1644P, G-1644S
!!@@BEGIN:	VERSES
!!@ABOUTIT:
!!@ABOUTEN:
!!@EDITOR:	Angelo Solerti
!!@EDITION_TITLE: Gerusalemme liberata. Poema eroico di Torquato Tasso. Edizione critica sui manoscritti e le prime stampe.
!!@EDITION_LOC:	Florence
!!@EDITION_PUB:	G. Barbera
!!@EDITION_DATE:  1895
!!@EDITION_VOL:
!!@EDITION_PAGE:
!!@TRANSLATOR:	Emiliano Ricciardi and Amyrose McCue Gill
!!@VERSE:
!!	Là tra ’l sangue e le morti egro giacente
!!	Mi pagherai le pene, empio guerriero.
!!	Per nome Armida chiamerai sovente
!!	Negli ultimi singulti; udir ciò spero...
!!	Or qui mancò lo spirto alla dolente;
!!	Né quest’ultimo suono espresse intero:
!!	E cadde tramortita, e si diffuse
!!	Di gelato sudore, e i lumi chiuse.
!!@TVERSE:
!!	There among the blood and the dead, weak, prostrate,
!!	You will pay me for my pains, wicked warrior.
!!	For the name Armida you will call often
!!	With your last sobs; to hear that I wish…
!!	Now here breath was lacking from the suffering woman;
!!	Nor this last sound did she express entire:
!!	And fell stunned, and was drenched
!!	In icy sweat, and closed her eyes.
!!@@END:		VERSES
!!@OTHER_CRIT_ED:  Torquato Tasso, <i>Gerusalemme liberata</i>, ed. Lanfranco Caretti, 2 vols. (Bari: Laterza, 1967).
!!@ATTRIBUTION_ABOUT:
!!@DATING:	mid-1560s through 1570s
!!@DEDICATEE:	Duke Alfonso II d'Este
!!@COMMENTARY:
!!@@END:		VERSEDATA
!!@@BEGIN: SETTING
!!@CATALOGNUM:	Tsg16060f
!!@CANTO:		XVI
!!@OTTAVA:	60
!!@TITLE:	Là tra 'l sangue e le morti egro giacente
!!@SETTINGTITLE: Là tra 'l sangu'e le morti egro giacente
!!@COMPOSER:	Cifra, Antonio
!!@PARTS:		4 (verses 1-2; 3-4; 5-6; 7-8)
!!@PRINCEPSTITLE:	Li Diversi Scherzi a una, due et tre voci. Libro secondo
!!@PRINCEPSLOC:	Rome
!!@NORMLOC:	Rome
!!@NORMPUB:	Giovanni Battista Robletti
!!@NORMPUBSHORT:	Robletti
!!@PRINCEPSPUB:	Giovanni Battista Robletti
!!@PRINCEPSYEAR:	1613
!!@PRINCEPSRISM:	C 2215
!!@OVOICES:	2+bc
!!@EXTANTVOICES:	2+bc
!!@OMENSURATION:	C
!!@OCLEFS:	C1,C1,F4
!!@OTIME:		
!!@OKEYSIG:	b-
!!@FINAL:		(G)(G)(G)G
!!@TIMPEDITOR:	Ricciardi, Emiliano
!!@REPRINTS:	
!!@@END: SETTING
